X:217
U: ~ = !turn!
%%topmargin 3cm
T:The White Leaf
B:Traditional Irish Fiddle Tunes. Randy Miller and Jack Perron.
Z:Transcribed by Ralph Palmer
S:Oliver O'Higgins
R:Reel
L:1/8
M:C|
K:A
E | A2 cA eAcA | ceef  edcA | Bcde fdde | fdbg afec |
A2 cA eAcA | ecdf edcA | Bcde faaf | edcB A2 z ::
((3efg) | aA (3.A.A.A cAce | abga fefa | bf (3.f.f.f fefe | bf (3.f.f.f fefg |
aA (3.A.A.A cAce | a2 ga fecA | Bcde fdaf | ((3efe) ((3dcB) A2 :|]
